X: 698
T: Ey Büt-i Nev Edâ
C: Dede Efendi
O: Turkey
F: http://compmusic.upf.edu/node/140
N: hicaz--sarki--yuruksemai--ey_but-i--dede_efendi
N: makam= hicaz
N: form= sarki
N: usul= yuruksemai = 6/8
M: 6/8
L: 1/16
K: C _7/8B ^f ^c 
Q: 1/4=180
%%MIDI tuningsystem comma53
a3g a2g2 f2e2  | g3f g2=f2 e2d2  | e2=f2 e2ed c2d2  | \
w:  ARANAĞME  |   |   | 
efg2 fee4z2  | 
w:   | 
a3g a2g2 f2e2  | g3f g2=f2 e2d2  | e2=f2 e2e2 d2c2  | \
w:   |   |   | 
cdcB BAA4z2  | 
w:   | 
a3g a2g2 f2e2  | g3f g2=f2 e2d2  | e2=f2 e2ed c2d2  | \
w:  ARANAĞME  |   |   | 
efg2 fee4z2  | 
w:   | 
a3g a2g2 f2e2  | g3f g2=f2 e2d2  | e2=f2 e2e2 d2c2  | \
w:   |   |   | 
cdcB BAA4z2  | 
w:   | 
d2c2 d2e6  | e2f2 g2f2 e2d2  | e4 =f2e2 d2c2  | \
w:  Ey  *  büt_ i   |  nev *  e dâ    |  Ol mu şum   | 
c3B BAA4z2  | 
w:  müp *  te lâ    | 
d2c2 d2e6  | e2f2 g2f2 e2d2  | e4 =f2e2 d2c2  | \
w:  Ey  *  büt_ i   |  nev *  e dâ    |  Ol mu şum   | 
c3B BAA4z2  | 
w:  müp *  te lâ    | 
a4 a2a4z2  | _b4 baa6  | ^g4 g2g6  | ^g3=f f2f4z2  | \
w:  Â şı kım   |  ben  sa *  na    |  İl ti fat   |  et  *  ba na    | 
a3^g =f2a3gf2  | 
w:  Yâr   | 
_b2a2 ^g2=f4e2  | a^g=fe dcd4z2  | g4 g2f2 e2d2  | \
w:  yâr   |  yâr    |  İl ti fat   | 
e4 =f2e2 d2c2  | 
w:  et  ba na    | 
e3d dcc4B2  | c3B BAAB cdef  | g4 g2f2 e2d2  | 
w:  Â *  şı *  kım   |  ben  *  sa *  na   SAZ  |  İl ti fat   | 
e4 =f2e2 d2c2  | e3d dcc4B2  | c3B BAA6  | \
w:  et  ba na    |  Â *  şı *  kım   |  ben  *  sa *  na    | 
a3g a2g2 f2e2  | 
w:  ARANAĞME  | 
g3f g2=f2 e2d2  | e2=f2 e2ed c2d2  | \
w:   |   | 
efg2 fee4z2  | a3g a2g2 f2e2  | 
w:   |   | 
g3f g2=f2 e2d2  | e2=f2 e2e2 d2c2  | \
w:   |   | 
cdcB BAA4z2  | a3g a2g2 f2e2  | 
w:   |  ARANAĞME  | 
g3f g2=f2 e2d2  | e2=f2 e2ed c2d2  | \
w:   |   | 
efg2 fee4z2  | a3g a2g2 f2e2  | 
w:   |   | 
g3f g2=f2 e2d2  | e2=f2 e2e2 d2c2  | \
w:   |   | 
cdcB BAA4z2  | d2c2 d2e6  | 
w:   |  Ey  *  büt_ i   | 
e2f2 g2f2 e2d2  | e4 =f2e2 d2c2  | c3B BAA4z2  | \
w:  nev *  e dâ    |  Ol mu şum   |  müp *  te lâ    | 
d2c2 d2e6  | 
w:  Ey  *  büt_ i   | 
e2f2 g2f2 e2d2  | e4 =f2e2 d2c2  | c3B BAA4z2  | \
w:  nev *  e dâ    |  Ol mu şum   |  müp *  te lâ    | 
a4 a2a4z2  | 
w:  Â şı kım   | 
_b4 baa6  | ^g4 g2g6  | ^g3=f f2f4z2  | \
w:  ben  sa *  na    |  İl ti fat   |  et  *  ba na    | 
a3^g =f2a3gf2  | _b2a2 ^g2=f4e2  | 
w:  Yâr   |  yâr   | 
a^g=fe dcd4z2  | g4 g2f2 e2d2  | e4 =f2e2 d2c2  | \
w:  yâr    |  İl ti fat   |  et  ba na    | 
e3d dcc4B2  | 
w:  Â *  şı *  kım   | 
c3B BAAB cdef  | g4 g2f2 e2d2  | e4 =f2e2 d2c2  | \
w:  ben  *  sa *  na   SAZ  |  İl ti fat   |  et  ba na    | 
e3d dcc4B2  | 
w:  Â *  şı *  kım   | 
c3B BAA6  | |


